X: 4131
T: The BONNY BROOM
R: Strathspey.
%R: strathspey
B: James Kerr "Merry Melodies" v.4 p.16 #131
Z: 2016 John Chambers <jc:trillian.mit.edu>
M: C
L: 1/16
K: Em
|:\
Be3 B3A G3F E4 | Ad3 A3G F3E D4 |\
E3FG3A BB3 e3f | g3e gfe^d e6 B2 :|
|:\
Be3 g3f e3fg3b | a3gf3e d3e gfed |\
Be3 e3f g3f g3b |[1 a3f bagf e6 B2 :|[2 af3 b3^d e6 z2 |]

%%sep 1 1 500
%%sep 1 1 500

